assets/images/afrikons/shield-outline.svg

<svg viewBox="0 0 50 50" xmlns="http://www.w3.org/2000/svg"><path d="m0 0h50v50h-50z" fill="none"/><path d="m50 48.34-23.62-23.62 8.9-8.9a2.75 2.75 0 0 0 4.18-.35l9.6-13.43a1.13 1.13 0 0 0 -.89-1.76 1.19 1.19 0 0 0 -.67.22l-13.31 9.75a2.75 2.75 0 0 0 -.32 4.16l-8.87 8.93-8.9-8.9a2.75 2.75 0 0 0 -.32-4.16l-13.28-9.78a1.19 1.19 0 0 0 -.67-.22 1.13 1.13 0 0 0 -.92 1.79l9.6 13.43a2.75 2.75 0 0 0 4.18.35l8.9 8.9-23.59 23.59 1.38 1.38 23.62-23.62 23.62 23.62zm-15-35.93a.8.8 0 0 1 .33-.59l9.17-6.71-6.61 9.26a.8.8 0 0 1 -.66.33.79.79 0 0 1 -.56-.23l-1.42-1.47a.81.81 0 0 1 -.25-.59zm-22.25 2.29a.8.8 0 0 1 -.66-.33l-6.61-9.26 9.17 6.71a.8.8 0 0 1 .33.59.81.81 0 0 1 -.23.62l-1.44 1.44a.79.79 0 0 1 -.56.23z" fill="#212121"/></svg>

<svg xmlns="http://www.w3.org/2000/svg" viewBox="0 0 50 50"><defs><style>.cls-1{fill:none;}.cls-2{fill:#212121;}</style></defs><title>shield-outline</title><g id="Layer_2" data-name="Layer 2"><g id="Layer_1-2" data-name="Layer 1"><rect class="cls-1" width="50" height="50"/><path class="cls-2" d="M50,48.34,26.38,24.72l8.9-8.9,0,0a2.75,2.75,0,0,0,4.18-.35l9.6-13.43A1.13,1.13,0,0,0,48.17.28,1.19,1.19,0,0,0,47.5.5L34.19,10.25a2.75,2.75,0,0,0-.32,4.16l0,0L25,23.34l-8.9-8.9,0,0a2.75,2.75,0,0,0-.32-4.16L2.5.5A1.19,1.19,0,0,0,1.83.28,1.13,1.13,0,0,0,.91,2.07l9.6,13.43a2.75,2.75,0,0,0,4.18.35l0,0,8.9,8.9L0,48.34l1.38,1.38L25,26.1,48.62,49.72ZM35,12.41a.8.8,0,0,1,.33-.59l9.17-6.71-6.61,9.26a.8.8,0,0,1-.66.33.79.79,0,0,1-.56-.23L35.25,13A.81.81,0,0,1,35,12.41ZM12.75,14.7a.8.8,0,0,1-.66-.33L5.48,5.11l9.17,6.71a.8.8,0,0,1,.33.59.81.81,0,0,1-.23.62l-1.44,1.44A.79.79,0,0,1,12.75,14.7Z"/></g></g></svg>
